X:3133
T:Song from Vienna
C:anon.
O:Austria
A:Wien
R:German waltz
Z:Transcribed by Frank Nordberg - http://www.musicaviva.com
F:http://abc.musicaviva.com/tunes/austria/song-from-vienna/song-from-vienna-1.abc
M:3/4
L:1/8
K:D
"^Andantino"F^EF|"D"G>F FFA,F|"E7"E3B^AB|"A7"B>=A AAF^E|"D"F3 F^EF|
"D"G>F FFA,F|"E7"E3B^AB|"A7"B>=A AAF=E|"D"D3 FFF|
"E7"F>E E^A,B,^B,|"A"C3EEE|"F#7"G>F F^B,CE|"Bm"D3FFF|
"Bm7"A>^G "E7"G^A,B,G|"A"E3C"A#dim"CC|
"Bm"E>D DF"E7"CB,|"A7"A3A,DF|
"D"A>A AAGF|"G"G3BdE|"A7"A>A A^ABG|"D"F3A,DF|
"D"A>A AAGF|"G"G3BdE|"D"A>A A^A"A7"BC|"D"D3|]
W:
W:
W:  From Musica Viva - http://www.musicaviva.com
W:  the Internet center for free sheet music downloads.

